X: 11986
T: Enniscorthy
R: jig
M: 6/8
K: Fmajor
|:E|FAc FAc|fag fdc|FAc FAc|CEG GFE|
FAc FAc|fag fdc|FAc FAc|1 CEG F2:|2 CEG F3||
K:C
|:CEG CEG|A,CE A,CE|G,CE GFE|DEC B,A,G,|
CEG CEG|A,CE A,CE|G,CE GFE|DEG, C3:|

